src/asset/24px/qr.svg

<svg width="24" height="24" viewBox="0 0 24 24" fill="none" xmlns="http://www.w3.org/2000/svg">
<path fill-rule="evenodd" clip-rule="evenodd" d="M17 12V13H16C15.4477 13 15 12.5523 15 12C15 11.4477 15.4477 11 16 11C16.5523 11 17 11.4477 17 12ZM19 13H17V15H16C15.4477 15 15 15.4477 15 16V17H12C11.4477 17 11 17.4477 11 18V20C11 20.5523 11.4477 21 12 21C12.5523 21 13 20.5523 13 20V19H17V20C17 20.5523 17.4477 21 18 21C18.5523 21 19 20.5523 19 20V19H20C20.5523 19 21 18.5523 21 18V16C21 15.4477 20.5523 15 20 15H19V13ZM19 12V13H20C20.5523 13 21 12.5523 21 12C21 11.4477 20.5523 11 20 11C19.4477 11 19 11.4477 19 12ZM19 15H17V19H19V15ZM4 11C3.44772 11 3 11.4477 3 12C3 12.5523 3.44772 13 4 13C4.55228 13 5 12.5523 5 12C5 11.4477 4.55228 11 4 11ZM12 5C11.4477 5 11 5.44772 11 6V8C11 8.55228 11.4477 9 12 9C12.5523 9 13 8.55228 13 8V6C13 5.44772 12.5523 5 12 5ZM10 11C9.44772 11 9 11.4477 9 12C9 12.5523 9.44772 13 10 13H11V14C11 14.5523 11.4477 15 12 15C12.5523 15 13 14.5523 13 14V12C13 11.4477 12.5523 11 12 11H10ZM16 3C15.4477 3 15 3.44772 15 4V8C15 8.55228 15.4477 9 16 9H20C20.5523 9 21 8.55228 21 8V4C21 3.44772 20.5523 3 20 3H16ZM17 5H19V7H17V5ZM4 3C3.44772 3 3 3.44772 3 4V8C3 8.55228 3.44772 9 4 9H8C8.55228 9 9 8.55228 9 8V4C9 3.44772 8.55228 3 8 3H4ZM5 5H7V7H5V5ZM4 15C3.44772 15 3 15.4477 3 16V20C3 20.5523 3.44772 21 4 21H8C8.55228 21 9 20.5523 9 20V16C9 15.4477 8.55228 15 8 15H4ZM5 17H7V19H5V17Z" fill="#808080"/>
</svg>

<svg width="24" height="24" fill="none" xmlns="http://www.w3.org/2000/svg"><path fill-rule="evenodd" clip-rule="evenodd" d="M17 12v1h-1a1 1 0 111-1zm2 1h-2v2h-1a1 1 0 00-1 1v1h-3a1 1 0 00-1 1v2a1 1 0 102 0v-1h4v1a1 1 0 102 0v-1h1a1 1 0 001-1v-2a1 1 0 00-1-1h-1v-2zm0-1v1h1a1 1 0 10-1-1zm0 3h-2v4h2v-4zM4 11a1 1 0 100 2 1 1 0 000-2zm8-6a1 1 0 00-1 1v2a1 1 0 102 0V6a1 1 0 00-1-1zm-2 6a1 1 0 100 2h1v1a1 1 0 102 0v-2a1 1 0 00-1-1h-2zm6-8a1 1 0 00-1 1v4a1 1 0 001 1h4a1 1 0 001-1V4a1 1 0 00-1-1h-4zm1 2h2v2h-2V5zM4 3a1 1 0 00-1 1v4a1 1 0 001 1h4a1 1 0 001-1V4a1 1 0 00-1-1H4zm1 2h2v2H5V5zM4 15a1 1 0 00-1 1v4a1 1 0 001 1h4a1 1 0 001-1v-4a1 1 0 00-1-1H4zm1 2h2v2H5v-2z" fill="gray"/></svg>
